common.blocks/social-icon/_clear/social-icon_clear_ok-primary.svg

<svg xmlns="http://www.w3.org/2000/svg" width="24" height="24" viewBox="0 0 24 24">
  <path fill="#000000" fill-rule="evenodd" d="M11.9864166,5.02471675 C13.207181,5.02471675 14.2001719,5.98292972 14.2001719,7.16131861 C14.2001719,8.33878108 13.207181,9.29761166 11.9864166,9.29761166 C10.7666118,9.29761166 9.77266128,8.33878108 9.77266128,7.16131861 C9.77266128,5.98292972 10.7666118,5.02471675 11.9864166,5.02471675 L11.9864166,5.02471675 Z M11.9864166,12.3210932 C14.9356377,12.3210932 17.3330195,10.0066213 17.3330195,7.16131861 C17.3330195,4.31508948 14.9356377,2 11.9864166,2 C9.03783529,2 6.63981367,4.31508948 6.63981367,7.16131861 C6.63981367,10.0066213 9.03783529,12.3210932 11.9864166,12.3210932 L11.9864166,12.3210932 Z M14.1633019,16.5335849 C15.2516249,16.2942633 16.3012393,15.8786156 17.2679977,15.2925092 C17.9996246,14.8472165 18.2200405,13.9137077 17.7590547,13.2074773 C17.2983889,12.4997028 16.3319503,12.2866294 15.5990438,12.731922 C13.4089616,14.0613151 10.5893028,14.0610063 8.40050021,12.731922 C7.66759365,12.2866294 6.7008352,12.4997028 6.24112908,13.2074773 C5.78014334,13.9143253 5.99991933,14.8472165 6.73154626,15.2925092 C7.69830471,15.877998 8.74791903,16.2942633 9.83624207,16.5335849 L6.84703262,19.4190319 C6.23601057,20.0094615 6.23601057,20.9667481 6.84767244,21.5571778 C7.15382328,21.8520838 7.55434663,21.9996912 7.95486999,21.9996912 C8.35603316,21.9996912 8.75719633,21.8520838 9.06334717,21.5571778 L11.9994521,18.7217567 L14.9381163,21.5571778 C15.5491383,22.1476074 16.5405296,22.1476074 17.1521914,21.5571778 C17.7644931,20.9667481 17.7644931,20.0088439 17.1521914,19.4190319 L14.1633019,16.5335849"/>
</svg>

<svg xmlns="http://www.w3.org/2000/svg" width="24" height="24"><path fill-rule="evenodd" d="M11.986 5.025c1.221 0 2.214.958 2.214 2.136 0 1.178-.993 2.137-2.214 2.137-1.22 0-2.213-.96-2.213-2.137 0-1.178.994-2.136 2.213-2.136zm0 7.296c2.95 0 5.347-2.314 5.347-5.16S14.936 2 11.986 2C9.038 2 6.64 4.315 6.64 7.161c0 2.846 2.398 5.16 5.346 5.16zm2.177 4.213a10.219 10.219 0 0 0 3.105-1.241c.732-.446.952-1.38.491-2.086-.46-.707-1.427-.92-2.16-.475a6.996 6.996 0 0 1-7.198 0c-.733-.445-1.7-.232-2.16.475a1.482 1.482 0 0 0 .49 2.086 10.235 10.235 0 0 0 3.105 1.24L6.847 19.42a1.476 1.476 0 0 0 0 2.138c.307.295.707.443 1.108.443.401 0 .802-.148 1.108-.443L12 18.722l2.94 2.835c.61.59 1.602.59 2.213 0a1.474 1.474 0 0 0 0-2.138l-2.989-2.885"/></svg>
